libs/assets/src/cow-swap/progressbar-step-unfillable.svg

<svg xmlns="http://www.w3.org/2000/svg" fill="none" viewBox="0 0 1910 1000"><g clip-path="url(#a)"><path fill="#F2CD16" d="M0 0h1910v1000H0z"/><path fill="#F7DD4E" fill-rule="evenodd" d="M665 846c14.471 0 26 11.678 26 25.833v55.334C691 941.322 679.471 953 665 953s-26-11.678-26-25.833v-55.334C639 857.678 650.529 846 665 846Zm0-64c49.706 0 90 40.22 90 89.833v55.334c0 49.613-40.294 89.833-90 89.833s-90-40.22-90-89.833v-55.334C575 822.22 615.294 782 665 782Z" clip-rule="evenodd"/><path fill="#D0AC10" fill-rule="evenodd" d="M85 846c14.471 0 26 11.678 26 25.833v55.334C111 941.322 99.471 953 85 953s-26-11.678-26-25.833v-55.334C59 857.678 70.529 846 85 846Zm0-64c49.706 0 90 40.22 90 89.833v55.334C175 976.78 134.706 1017 85 1017s-90-40.22-90-89.833v-55.334C-5 822.22 35.294 782 85 782Z" clip-rule="evenodd"/><path fill="#F7DD4E" fill-rule="evenodd" d="M1709 846c14.47 0 26 11.678 26 25.833v55.334c0 14.155-11.53 25.833-26 25.833s-26-11.678-26-25.833v-55.334c0-14.155 11.53-25.833 26-25.833Zm0-64c49.71 0 90 40.22 90 89.833v55.334c0 49.613-40.29 89.833-90 89.833s-90-40.22-90-89.833v-55.334c0-49.613 40.29-89.833 90-89.833Z" clip-rule="evenodd"/><path fill="#FEF9D0" fill-rule="evenodd" d="M1129 846c-14.47 0-26 11.678-26 25.833v55.334c0 14.155 11.53 25.833 26 25.833s26-11.678 26-25.833v-55.334c0-14.155-11.53-25.833-26-25.833Zm0-64c-49.71 0-90 40.22-90 89.833v55.334c0 49.613 40.29 89.833 90 89.833s90-40.22 90-89.833v-55.334c0-49.613-40.29-89.833-90-89.833Z" clip-rule="evenodd"/><path fill="#F7DD4E" fill-rule="evenodd" d="M1477 306c14.47 0 26 11.678 26 25.833v55.334c0 14.155-11.53 25.833-26 25.833s-26-11.678-26-25.833v-55.334c0-14.155 11.53-25.833 26-25.833Zm0-64c49.71 0 90 40.22 90 89.833v55.334c0 49.613-40.29 89.833-90 89.833s-90-40.22-90-89.833v-55.334c0-49.613 40.29-89.833 90-89.833Z" clip-rule="evenodd"/><path fill="#D0AC10" fill-rule="evenodd" d="M1825 576c-14.47 0-26 11.678-26 25.833v55.334c0 14.155 11.53 25.833 26 25.833s26-11.678 26-25.833v-55.334c0-14.155-11.53-25.833-26-25.833Zm0-64c-49.71 0-90 40.22-90 89.833v55.334c0 49.613 40.29 89.833 90 89.833s90-40.22 90-89.833v-55.334c0-49.613-40.29-89.833-90-89.833Zm-348 334c-14.47 0-26 11.678-26 25.833v55.334c0 14.155 11.53 25.833 26 25.833s26-11.678 26-25.833v-55.334c0-14.155-11.53-25.833-26-25.833Zm0-64c-49.71 0-90 40.22-90 89.833v55.334c0 49.613 40.29 89.833 90 89.833s90-40.22 90-89.833v-55.334c0-49.613-40.29-89.833-90-89.833Z" clip-rule="evenodd"/><path fill="#FEF9D0" fill-rule="evenodd" d="M1593 576c-14.47 0-26 11.678-26 25.833v55.334c0 14.155 11.53 25.833 26 25.833s26-11.678 26-25.833v-55.334c0-14.155-11.53-25.833-26-25.833Zm0-64c-49.71 0-90 40.22-90 89.833v55.334c0 49.613 40.29 89.833 90 89.833s90-40.22 90-89.833v-55.334c0-49.613-40.29-89.833-90-89.833Z" clip-rule="evenodd"/><path fill="#D0AC10" fill-rule="evenodd" d="M85 306c-14.471 0-26 11.678-26 25.833v55.334C59 401.322 70.529 413 85 413s26-11.678 26-25.833v-55.334C111 317.678 99.471 306 85 306Zm0-64c-49.706 0-90 40.22-90 89.833v55.334C-5 436.78 35.294 477 85 477s90-40.22 90-89.833v-55.334C175 282.22 134.706 242 85 242Z" clip-rule="evenodd"/><path fill="#FEF9D0" d="M291 244h-64v231h64V244Z"/><path fill="#F7DD4E" d="M407 244h-64v231h64V244Zm0 540h-64v231h64V784Z"/><path fill="#D0AC10" d="M523 244h-64v231h64V244Zm116 501h-64V514h64v231Z"/><path fill="#544003" d="M291 784h-64v231h64V784Z"/><path fill="#F7DD4E" d="M1683 244h-64v231h64V244Z"/><path fill="#FEF9D0" d="M1851 244h64v231h-64V244Z"/><path fill="#D0AC10" fill-rule="evenodd" d="M1013 36c-14.471 0-26 11.678-26 25.833v55.334c0 14.155 11.529 25.833 26 25.833 14.47 0 26-11.678 26-25.833V61.833C1039 47.678 1027.47 36 1013 36Zm0-64c-49.706 0-90 40.22-90 89.833v55.334C923 166.78 963.294 207 1013 207c49.71 0 90-40.22 90-89.833V61.833C1103 12.22 1062.71-28 1013-28Z" clip-rule="evenodd"/><path fill="#FEF9D0" fill-rule="evenodd" d="M1593 36c-14.47 0-26 11.678-26 25.833v55.334c0 14.155 11.53 25.833 26 25.833s26-11.678 26-25.833V61.833C1619 47.678 1607.47 36 1593 36Zm0-64c-49.71 0-90 40.22-90 89.833v55.334c0 49.613 40.29 89.833 90 89.833s90-40.22 90-89.833V61.833C1683 12.22 1642.71-28 1593-28ZM549 36c14.471 0 26 11.678 26 25.833v55.334C575 131.322 563.471 143 549 143s-26-11.678-26-25.833V61.833C523 47.678 534.529 36 549 36Zm0-64c49.706 0 90 40.22 90 89.833v55.334C639 166.78 598.706 207 549 207s-90-40.22-90-89.833V61.833C459 12.22 499.294-28 549-28Z" clip-rule="evenodd"/><path fill="#F7DD4E" fill-rule="evenodd" d="M1825 36c-14.47 0-26 11.678-26 25.833v55.334c0 14.155 11.53 25.833 26 25.833s26-11.678 26-25.833V61.833C1851 47.678 1839.47 36 1825 36Zm0-64c-49.71 0-90 40.22-90 89.833v55.334c0 49.613 40.29 89.833 90 89.833s90-40.22 90-89.833V61.833C1915 12.22 1874.71-28 1825-28ZM85 36c-14.471 0-26 11.678-26 25.833v55.334C59 131.322 70.529 143 85 143s26-11.678 26-25.833V61.833C111 47.678 99.471 36 85 36Zm0-64C35.294-28-5 12.22-5 61.833v55.334C-5 166.78 35.294 207 85 207s90-40.22 90-89.833V61.833C175 12.22 134.706-28 85-28Z" clip-rule="evenodd"/><path fill="#D0AC10" fill-rule="evenodd" d="M317 36c-14.471 0-26 11.678-26 25.833v55.334C291 131.322 302.529 143 317 143s26-11.678 26-25.833V61.833C343 47.678 331.471 36 317 36Zm0-64c-49.706 0-90 40.22-90 89.833v55.334C227 166.78 267.294 207 317 207s90-40.22 90-89.833V61.833C407 12.22 366.706-28 317-28Z" clip-rule="evenodd"/><path fill="#F7DD4E" d="M1155-26h64v231h-64V-26Z"/><path fill="#D0AC10" d="M1271-26h64v231h-64V-26ZM987 784h-64v231h64V784Z"/><path fill="#FEF9D0" d="M459 784h64v231h-64V784Z"/><path fill="#D0AC10" d="M871-26h-64v231h64V-26Z"/><path fill="#F7DD4E" d="M1387-26h64v231h-64V-26Z"/><path fill="#D0AC10" d="M871 784h-64v231h64V784Zm464 0h-64v231h64V784Zm52-270h64v231h-64V514Z"/><path fill="#F7DD4E" d="M1271 514h64v231h-64V514Z"/><path fill="#D0AC10" d="M1271 244h64v231h-64V244Zm528 231h-64V244h64v231Zm52 309h64v231h-64V784Z"/><path fill="#FEF9D0" d="M755-26h-64v231h64V-26Z"/><path fill="#F7DD4E" fill-rule="evenodd" d="M-31 576c14.471 0 26 11.678 26 25.833v55.334C-5 671.322-16.529 683-31 683s-26-11.678-26-25.833v-55.334C-57 587.678-45.471 576-31 576Zm0-64c49.706 0 90 40.22 90 89.833v55.334C59 706.78 18.706 747-31 747s-90-40.22-90-89.833v-55.334C-121 552.22-80.706 512-31 512Z" clip-rule="evenodd"/><path fill="#D0AC10" fill-rule="evenodd" d="M317 576c-14.471 0-26 11.678-26 25.833v55.334C291 671.322 302.529 683 317 683s26-11.678 26-25.833v-55.334C343 587.678 331.471 576 317 576Zm0-64c-49.706 0-90 40.22-90 89.833v55.334C227 706.78 267.294 747 317 747s90-40.22 90-89.833v-55.334C407 552.22 366.706 512 317 512Z" clip-rule="evenodd"/><path fill="#F7DD4E" d="M459 514h64v231h-64V514Z"/><path fill="#FEF9D0" d="M575 475h64V244h-64v231Zm-400 39h-64v231h64V514Z"/><path fill="#544003" d="M691 244h232v501H691zm296 0h232v501H987z"/></g><defs><clipPath id="a"><path fill="#fff" d="M0 0h1910v1000H0z"/></clipPath></defs></svg>

<svg width="1910" height="1000" viewBox="0 0 1910 1000" fill="none" xmlns="http://www.w3.org/2000/svg">
<g clip-path="url(#clip0_276_1001)">
<rect width="1910" height="1000" fill="#F2CD16"/>
<path fill-rule="evenodd" clip-rule="evenodd" d="M665 846C679.471 846 691 857.678 691 871.833V927.167C691 941.322 679.471 953 665 953C650.529 953 639 941.322 639 927.167V871.833C639 857.678 650.529 846 665 846ZM665 782C714.706 782 755 822.22 755 871.833V927.167C755 976.78 714.706 1017 665 1017C615.294 1017 575 976.78 575 927.167V871.833C575 822.22 615.294 782 665 782Z" fill="#F7DD4E"/>
<path fill-rule="evenodd" clip-rule="evenodd" d="M85 846C99.4713 846 111 857.678 111 871.833V927.167C111 941.322 99.4713 953 85 953C70.5287 953 59 941.322 59 927.167V871.833C59 857.678 70.5287 846 85 846ZM85 782C134.706 782 175 822.22 175 871.833V927.167C175 976.78 134.706 1017 85 1017C35.2944 1017 -5 976.78 -5 927.167V871.833C-5 822.22 35.2944 782 85 782Z" fill="#D0AC10"/>
<path fill-rule="evenodd" clip-rule="evenodd" d="M1709 846C1723.47 846 1735 857.678 1735 871.833V927.167C1735 941.322 1723.47 953 1709 953C1694.53 953 1683 941.322 1683 927.167V871.833C1683 857.678 1694.53 846 1709 846ZM1709 782C1758.71 782 1799 822.22 1799 871.833V927.167C1799 976.78 1758.71 1017 1709 1017C1659.29 1017 1619 976.78 1619 927.167V871.833C1619 822.22 1659.29 782 1709 782Z" fill="#F7DD4E"/>
<path fill-rule="evenodd" clip-rule="evenodd" d="M1129 846C1114.53 846 1103 857.678 1103 871.833V927.167C1103 941.322 1114.53 953 1129 953C1143.47 953 1155 941.322 1155 927.167V871.833C1155 857.678 1143.47 846 1129 846ZM1129 782C1079.29 782 1039 822.22 1039 871.833V927.167C1039 976.78 1079.29 1017 1129 1017C1178.71 1017 1219 976.78 1219 927.167V871.833C1219 822.22 1178.71 782 1129 782Z" fill="#FEF9D0"/>
<path fill-rule="evenodd" clip-rule="evenodd" d="M1477 306C1491.47 306 1503 317.678 1503 331.833V387.167C1503 401.322 1491.47 413 1477 413C1462.53 413 1451 401.322 1451 387.167V331.833C1451 317.678 1462.53 306 1477 306ZM1477 242C1526.71 242 1567 282.22 1567 331.833V387.167C1567 436.78 1526.71 477 1477 477C1427.29 477 1387 436.78 1387 387.167V331.833C1387 282.22 1427.29 242 1477 242Z" fill="#F7DD4E"/>
<path fill-rule="evenodd" clip-rule="evenodd" d="M1825 576C1810.53 576 1799 587.678 1799 601.833V657.167C1799 671.322 1810.53 683 1825 683C1839.47 683 1851 671.322 1851 657.167V601.833C1851 587.678 1839.47 576 1825 576ZM1825 512C1775.29 512 1735 552.22 1735 601.833V657.167C1735 706.78 1775.29 747 1825 747C1874.71 747 1915 706.78 1915 657.167V601.833C1915 552.22 1874.71 512 1825 512Z" fill="#D0AC10"/>
<path fill-rule="evenodd" clip-rule="evenodd" d="M1477 846C1462.53 846 1451 857.678 1451 871.833V927.167C1451 941.322 1462.53 953 1477 953C1491.47 953 1503 941.322 1503 927.167V871.833C1503 857.678 1491.47 846 1477 846ZM1477 782C1427.29 782 1387 822.22 1387 871.833V927.167C1387 976.78 1427.29 1017 1477 1017C1526.71 1017 1567 976.78 1567 927.167V871.833C1567 822.22 1526.71 782 1477 782Z" fill="#D0AC10"/>
<path fill-rule="evenodd" clip-rule="evenodd" d="M1593 576C1578.53 576 1567 587.678 1567 601.833V657.167C1567 671.322 1578.53 683 1593 683C1607.47 683 1619 671.322 1619 657.167V601.833C1619 587.678 1607.47 576 1593 576ZM1593 512C1543.29 512 1503 552.22 1503 601.833V657.167C1503 706.78 1543.29 747 1593 747C1642.71 747 1683 706.78 1683 657.167V601.833C1683 552.22 1642.71 512 1593 512Z" fill="#FEF9D0"/>
<path fill-rule="evenodd" clip-rule="evenodd" d="M85 306C70.5287 306 59 317.678 59 331.833V387.167C59 401.322 70.5287 413 85 413C99.4713 413 111 401.322 111 387.167V331.833C111 317.678 99.4713 306 85 306ZM85 242C35.2944 242 -5 282.22 -5 331.833V387.167C-5 436.78 35.2944 477 85 477C134.706 477 175 436.78 175 387.167V331.833C175 282.22 134.706 242 85 242Z" fill="#D0AC10"/>
<path d="M291 244H227V475H291V244Z" fill="#FEF9D0"/>
<path d="M407 244H343V475H407V244Z" fill="#F7DD4E"/>
<path d="M407 784H343V1015H407V784Z" fill="#F7DD4E"/>
<path d="M523 244H459V475H523V244Z" fill="#D0AC10"/>
<path d="M639 745H575V514H639V745Z" fill="#D0AC10"/>
<path d="M291 784H227V1015H291V784Z" fill="#544003"/>
<path d="M1683 244H1619V475H1683V244Z" fill="#F7DD4E"/>
<path d="M1851 244H1915V475H1851V244Z" fill="#FEF9D0"/>
<path fill-rule="evenodd" clip-rule="evenodd" d="M1013 36C998.529 36 987 47.6778 987 61.8333V117.167C987 131.322 998.529 143 1013 143C1027.47 143 1039 131.322 1039 117.167V61.8333C1039 47.6778 1027.47 36 1013 36ZM1013 -28C963.294 -28 923 12.2198 923 61.8333V117.167C923 166.78 963.294 207 1013 207C1062.71 207 1103 166.78 1103 117.167V61.8333C1103 12.2198 1062.71 -28 1013 -28Z" fill="#D0AC10"/>
<path fill-rule="evenodd" clip-rule="evenodd" d="M1593 36C1578.53 36 1567 47.6778 1567 61.8333V117.167C1567 131.322 1578.53 143 1593 143C1607.47 143 1619 131.322 1619 117.167V61.8333C1619 47.6778 1607.47 36 1593 36ZM1593 -28C1543.29 -28 1503 12.2198 1503 61.8333V117.167C1503 166.78 1543.29 207 1593 207C1642.71 207 1683 166.78 1683 117.167V61.8333C1683 12.2198 1642.71 -28 1593 -28Z" fill="#FEF9D0"/>
<path fill-rule="evenodd" clip-rule="evenodd" d="M549 36C563.471 36 575 47.6778 575 61.8333V117.167C575 131.322 563.471 143 549 143C534.529 143 523 131.322 523 117.167V61.8333C523 47.6778 534.529 36 549 36ZM549 -28C598.706 -28 639 12.2198 639 61.8333V117.167C639 166.78 598.706 207 549 207C499.294 207 459 166.78 459 117.167V61.8333C459 12.2198 499.294 -28 549 -28Z" fill="#FEF9D0"/>
<path fill-rule="evenodd" clip-rule="evenodd" d="M1825 36C1810.53 36 1799 47.6778 1799 61.8333V117.167C1799 131.322 1810.53 143 1825 143C1839.47 143 1851 131.322 1851 117.167V61.8333C1851 47.6778 1839.47 36 1825 36ZM1825 -28C1775.29 -28 1735 12.2198 1735 61.8333V117.167C1735 166.78 1775.29 207 1825 207C1874.71 207 1915 166.78 1915 117.167V61.8333C1915 12.2198 1874.71 -28 1825 -28Z" fill="#F7DD4E"/>
<path fill-rule="evenodd" clip-rule="evenodd" d="M85 36C70.5287 36 59 47.6778 59 61.8333V117.167C59 131.322 70.5287 143 85 143C99.4713 143 111 131.322 111 117.167V61.8333C111 47.6778 99.4713 36 85 36ZM85 -28C35.2944 -28 -5 12.2198 -5 61.8333V117.167C-5 166.78 35.2944 207 85 207C134.706 207 175 166.78 175 117.167V61.8333C175 12.2198 134.706 -28 85 -28Z" fill="#F7DD4E"/>
<path fill-rule="evenodd" clip-rule="evenodd" d="M317 36C302.529 36 291 47.6778 291 61.8333V117.167C291 131.322 302.529 143 317 143C331.471 143 343 131.322 343 117.167V61.8333C343 47.6778 331.471 36 317 36ZM317 -28C267.294 -28 227 12.2198 227 61.8333V117.167C227 166.78 267.294 207 317 207C366.706 207 407 166.78 407 117.167V61.8333C407 12.2198 366.706 -28 317 -28Z" fill="#D0AC10"/>
<path d="M1155 -26H1219V205H1155V-26Z" fill="#F7DD4E"/>
<path d="M1271 -26H1335V205H1271V-26Z" fill="#D0AC10"/>
<path d="M987 784H923V1015H987V784Z" fill="#D0AC10"/>
<path d="M459 784H523V1015H459V784Z" fill="#FEF9D0"/>
<path d="M871 -26H807V205H871V-26Z" fill="#D0AC10"/>
<path d="M1387 -26H1451V205H1387V-26Z" fill="#F7DD4E"/>
<path d="M871 784H807V1015H871V784Z" fill="#D0AC10"/>
<path d="M1335 784H1271V1015H1335V784Z" fill="#D0AC10"/>
<path d="M1387 514H1451V745H1387V514Z" fill="#D0AC10"/>
<path d="M1271 514H1335V745H1271V514Z" fill="#F7DD4E"/>
<path d="M1271 244H1335V475H1271V244Z" fill="#D0AC10"/>
<path d="M1799 475H1735V244H1799V475Z" fill="#D0AC10"/>
<path d="M1851 784H1915V1015H1851V784Z" fill="#D0AC10"/>
<path d="M755 -26H691V205H755V-26Z" fill="#FEF9D0"/>
<path fill-rule="evenodd" clip-rule="evenodd" d="M-31 576C-16.5287 576 -5 587.678 -5 601.833V657.167C-5 671.322 -16.5287 683 -31 683C-45.4713 683 -57 671.322 -57 657.167V601.833C-57 587.678 -45.4713 576 -31 576ZM-31 512C18.7056 512 59 552.22 59 601.833V657.167C59 706.78 18.7056 747 -31 747C-80.7056 747 -121 706.78 -121 657.167V601.833C-121 552.22 -80.7056 512 -31 512Z" fill="#F7DD4E"/>
<path fill-rule="evenodd" clip-rule="evenodd" d="M317 576C302.529 576 291 587.678 291 601.833V657.167C291 671.322 302.529 683 317 683C331.471 683 343 671.322 343 657.167V601.833C343 587.678 331.471 576 317 576ZM317 512C267.294 512 227 552.22 227 601.833V657.167C227 706.78 267.294 747 317 747C366.706 747 407 706.78 407 657.167V601.833C407 552.22 366.706 512 317 512Z" fill="#D0AC10"/>
<path d="M459 514H523V745H459V514Z" fill="#F7DD4E"/>
<path d="M575 475H639V244H575V475Z" fill="#FEF9D0"/>
<path d="M175 514H111V745H175V514Z" fill="#FEF9D0"/>
<rect x="691" y="244" width="232" height="501" fill="#544003"/>
<rect x="987" y="244" width="232" height="501" fill="#544003"/>
</g>
<defs>
<clipPath id="clip0_276_1001">
<rect width="1910" height="1000" fill="white"/>
</clipPath>
</defs>
</svg>
